raws/icons/decors/search-catalog-icon.svg

<svg width="26" height="25" viewBox="0 0 26 25" fill="none" xmlns="http://www.w3.org/2000/svg">
<g clip-path="url(#clip0_2295_2089)">
<path d="M1.46015 4.01735H14.8015C15.0098 4.01735 15.1901 4.09348 15.3424 4.24572C15.4946 4.39796 15.5707 4.57825 15.5707 4.78658C15.5707 4.99492 15.4946 5.17521 15.3424 5.32745C15.1901 5.47969 15.0098 5.55581 14.8015 5.55581H1.46015C1.25182 5.55581 1.07153 5.47969 0.919283 5.32745C0.76704 5.17521 0.690918 4.99492 0.690918 4.78658C0.690918 4.57825 0.76704 4.39796 0.919283 4.24572C1.07153 4.09348 1.25182 4.01735 1.46015 4.01735ZM11.4601 13.0077C11.4601 14.2257 11.8888 15.2593 12.7462 16.1087C13.6036 16.9581 14.6332 17.3827 15.8351 17.3827C16.4441 17.3827 17.013 17.2706 17.5419 17.0462C18.0707 16.8218 18.5355 16.5093 18.9361 16.1087C19.3368 15.7081 19.6493 15.2433 19.8736 14.7145C20.098 14.1856 20.2101 13.6167 20.2101 13.0077C20.2101 11.8058 19.7855 10.7762 18.9361 9.91879C18.0868 9.06142 17.0531 8.63274 15.8351 8.63274C14.6332 8.63274 13.6036 9.06142 12.7462 9.91879C11.8888 10.7762 11.4601 11.8058 11.4601 13.0077ZM21.7486 13.0077C21.7486 13.6968 21.6404 14.3459 21.4241 14.9549C21.2077 15.5638 20.9073 16.1167 20.5226 16.6135L23.5515 19.6183C23.6957 19.7786 23.7678 19.9629 23.7678 20.1712C23.7678 20.3795 23.6957 20.5638 23.5515 20.7241C23.3912 20.8683 23.2069 20.9404 22.9986 20.9404C22.7903 20.9404 22.606 20.8683 22.4457 20.7241L19.4409 17.6952C18.9441 18.0799 18.3912 18.3803 17.7823 18.5967C17.1733 18.813 16.5243 18.9212 15.8351 18.9212C15.0178 18.9212 14.2486 18.769 13.5275 18.4645C12.8223 18.16 12.2013 17.7393 11.6645 17.2024C11.1276 16.6656 10.6989 16.0366 10.3784 15.3154C10.0739 14.5943 9.92169 13.825 9.92169 13.0077C9.92169 12.1904 10.0739 11.4212 10.3784 10.7C10.6989 9.99492 11.1276 9.37392 11.6645 8.83706C12.2013 8.30021 12.8223 7.87152 13.5275 7.55101C14.2486 7.24652 15.0178 7.09428 15.8351 7.09428C16.6525 7.09428 17.4217 7.24652 18.1428 7.55101C18.864 7.87152 19.493 8.30021 20.0299 8.83706C20.5667 9.37392 20.9874 9.99492 21.2919 10.7C21.5964 11.4212 21.7486 12.1904 21.7486 13.0077ZM0.690918 10.9404C0.690918 11.1488 0.76704 11.3291 0.919283 11.4813C1.07153 11.6335 1.25182 11.7097 1.46015 11.7097H5.57073C5.77906 11.7097 5.95935 11.6335 6.11159 11.4813C6.26383 11.3291 6.33996 11.1488 6.33996 10.9404C6.33996 10.7321 6.26383 10.5518 6.11159 10.3996C5.95935 10.2473 5.77906 10.1712 5.57073 10.1712H1.46015C1.25182 10.1712 1.07153 10.2473 0.919283 10.3996C0.76704 10.5518 0.690918 10.7321 0.690918 10.9404ZM1.46015 16.325H7.614C7.82233 16.325 8.00262 16.4012 8.15486 16.5534C8.3071 16.7057 8.38323 16.8859 8.38323 17.0943C8.38323 17.3026 8.3071 17.4829 8.15486 17.6351C8.00262 17.7874 7.82233 17.8635 7.614 17.8635H1.46015C1.25182 17.8635 1.07153 17.7874 0.919283 17.6351C0.76704 17.4829 0.690918 17.3026 0.690918 17.0943C0.690918 16.8859 0.76704 16.7057 0.919283 16.5534C1.07153 16.4012 1.25182 16.325 1.46015 16.325Z" fill="white"/>
</g>
<defs>
<clipPath id="clip0_2295_2089">
<rect width="24.6154" height="24.6154" fill="white" transform="matrix(1 0 0 -1 0.691895 24.8711)"/>
</clipPath>
</defs>
</svg>

<svg width="26" height="25" fill="none" xmlns="http://www.w3.org/2000/svg"><g clip-path="url(#clip0_2295_2089)"><path d="M1.46 4.017h13.341a.74.74 0 01.541.229.74.74 0 01.229.54.74.74 0 01-.229.541.74.74 0 01-.54.229H1.46a.74.74 0 01-.54-.229.74.74 0 01-.23-.54.74.74 0 01.23-.541.74.74 0 01.54-.229zm10 8.99c0 1.219.429 2.252 1.286 3.102.858.85 1.887 1.274 3.09 1.274a4.324 4.324 0 003.1-1.274 4.324 4.324 0 001.274-3.101c0-1.202-.424-2.232-1.274-3.09-.85-.857-1.883-1.285-3.1-1.285-1.203 0-2.232.428-3.09 1.286-.857.857-1.286 1.887-1.286 3.089zm10.289 0c0 .69-.109 1.339-.325 1.948a5.936 5.936 0 01-.901 1.658l3.029 3.005c.144.16.216.345.216.553a.803.803 0 01-.216.553.803.803 0 01-.553.216.803.803 0 01-.553-.216l-3.005-3.029a5.936 5.936 0 01-1.659.902 5.775 5.775 0 01-1.947.324 5.87 5.87 0 01-2.308-.456 5.938 5.938 0 01-1.862-1.263 6.202 6.202 0 01-1.287-1.887 5.871 5.871 0 01-.456-2.307c0-.818.152-1.587.456-2.308a6.293 6.293 0 013.15-3.149 5.87 5.87 0 012.307-.457 5.87 5.87 0 012.308.457c.721.32 1.35.75 1.887 1.286a5.941 5.941 0 011.262 1.863c.304.721.457 1.49.457 2.308zM.69 10.94a.74.74 0 00.228.541.74.74 0 00.541.229h4.11a.74.74 0 00.542-.229.74.74 0 00.228-.54.74.74 0 00-.228-.541.739.739 0 00-.541-.229H1.46a.74.74 0 00-.542.229.74.74 0 00-.228.54zm.77 5.385h6.153a.74.74 0 01.54.228.74.74 0 01.23.541.74.74 0 01-.23.541.739.739 0 01-.54.228H1.46a.74.74 0 01-.54-.228.74.74 0 01-.23-.54.74.74 0 01.23-.542.74.74 0 01.54-.228z" fill="#fff"/></g><defs><clipPath id="clip0_2295_2089"><path fill="#fff" transform="matrix(1 0 0 -1 .692 24.871)" d="M0 0h24.615v24.615H0z"/></clipPath></defs></svg>
